!!!OTL:  ES GIENG EIN MATROSE WOL UEBER DEN GRUND
!!!ARE: Europa, Mitteleuropa, Deutschland, Schleswig - Holstein, Achtrup
!!!SCT: E0069
!!!YEM: Copyright 1995, estate of Helmut Schaffrath.
**kern
*ICvox
*Ivox
*M6/8
*k[b-]
*F:
{8c
=1
8c
8f
8a
8cc
8a
8f
=2
8.e
16e
8g
8b-
8g}
{8e
=3
8.f
16f
8a
8cc
8a
8f
=4
4.g
4r}
{16f
16b-
=5
8dd
8b-
8dd
8ff
8ee
8dd
=6
8cc
8f
8a
4cc}
{8dd
=7
4cc
8g
8b-
8a
8g
=8
4a
8dd
4cc}
{8cc
=9
8dd
8b-
8dd
8ff
8ee
8dd
=10
8cc
8f
8a
4cc}
{8dd
=11
4cc
8g
8b-
8a
8g
=12
4.f
4r}
==
!!!AGN: erzaehlendes Volks - Lied, Sage, Liebe, Ballade ?
!!!ONB: ESAC (Essen Associative Code) Database: ERK1
!!!AMT: compound duple
!!!AIN: vox
!!!EED: Helmut Schaffrath
!!!EEV: 1.0
*-
